X:1
T:Title
%%score ( 1 2 ) { 3 | 4 }
L:1/8
Q:1/4=100
M:4/4
K:E
V:1 treble nm="Grand Piano, Soprano"
V:2 treble 
V:3 bass nm="Choir Pad, At the Mercy Seat"
V:4 bass 
V:1
 B,[B,E][CF][EG]- [EG] [EG]2 [EA]- | [EA] [DF]2 E- E4 | [B,E][EG][FA][GB]- [GB] [EB]2 [Ec]- | %3
w: By~William~James~Kirkpatrick * * * * * *|||
 [Ec] [Ec]2 [DF]- [DF]4 | z8 | z8 | z8 | z8 | z8 | z8 | z2 z e- e4- | e z z2 z4 | z8 | z8 | z8 | %15
w: ||||||||||||
 z8 | z8 |] %17
w: ||
V:2
 x8 | x8 | x8 | x8 | [DF][EG][FA][GB]- [GB] [GB]2 [=Ge]- | [Ge]2 [=Gc][^GB]- [GB]4- | %6
 [GB] B,2 [B,E] [DF][EG][FA][EG]- | [EG] [DF]2 [B,E]- [B,E]4- | [B,E][EG]- [EG]/[FA]/[GB]- [GB]4- | %9
 [GB] [FA]2 [EG]- [EG]4- | [EG][GB]- [GB]/[GB]/G- G3 A- | A [Ac]2 [GB]- [GB]4- | %12
 [GB] [GB]2 [Ge]- [Ge]2 [Ge][GB]- | [GB] [EG]2 [EA]- [EA] [EB]2 [Ec]- | %14
 [Ec] [Ec]2 [EB] [EG]E[EF][EG]- | [EG] [DF]2 [B,E]- [B,E]4- | [B,E]4 z4 |] %17
V:3
 G,G,A,B,- B, B,2 C- | C A,2 G,- G,4 | G,B,B,B,- B, G,2 A,- | A, C2 B,- B,4 | B,B,B,E- E B,2 ^A,- | %5
 A,2 ^A,B,- B,4- | B, B,2 B, B,B,CB,- | B, A,2 G,- G,4- | G,2 z2 z B,- B,/B,/B,- | %9
 B, B,2 B,- B,4- | B,2 z2 z B,- B,/B,/[K:treble]C- | C E2 E- E4- | E[K:bass] B,2 B,- B,2 B,E- | %13
 E B,2 A,- A, G,2 A,- | A, A,2 G, B,B,CB,- | B, A,2 G,- G,4- | G,4 z4 |] %17
V:4
 E,E,E,E,- E, E,2 A,,- | A,, B,,2 E,- E,4 | E,E,E,E,- E, E,2 A,,- | A,, A,,2 B,,- B,,4 | %4
 A,G,F,E,- E, E,2 E,- | E,2 E,E,- E,4- | E, B,,2 G,, B,,E,A,,B,,- | B,, B,,2 E,- E,4- | %8
 E,2 z2 z E,- E,/E,/E,- | E, B,,2 E,- E,4- | E,2 z2 z E,- E,/E,/A,- | A, A,2 E,- E,4- | %12
 E, E,2 E,- E,2 E,E,- | E,E,=D,C,- C, B,,2 A,,- | A,, A,,2 E, E,G, .A,2 | z B,,2 E,- E,4- | %16
 E,4 z4 |] %17

